X: 2
T: Fun der Khupe
O: Khevrisa
Z: 2006 John Chambers <jc:trillian.mit.edu>
N: From a printedtranscription by Steve Rauch
M: 2/4
L: 1/16
K: Em
"A"\
|: "Em"E3B, EGBA | "Em"G2GG G2G2 \
|1,3 "Em"GFE2 "Am"A2c2 | "Am"c2BA "Em"B4 \
:|2,4  "G"GDDG "F"G=FFE | "Em"E4 z4 :|
"B"\
|:"Em"E4- ED^CD | "Em"E4- ED^CD \
| "Em"ED^CD EDCD | "Em"ED^CD E4 \
| "Em"E=FED ^C2D2 | "Dm"=F2F2 "Em"E4 |
| "Em"E=FED ^C2D2 | "Dm"=F2F2 "Em"E4 \
|  "G"D2EF GABc | "G"dBGB "A(m)"A4 \
| "G"GDDG "F"G=FFE | "Em"E4 z4 :|
"C"\
|::: "D7"D2 \
| "G"GAB2- B2B2 | "G"B2 B4 B2 \
| "D7"A2A2 GFEF | "G"G4 z2 :::|
"B7"E2 \
"D"\
|:"Em"E4- EG"(B7)"BA | "Em"G6 "(B7)"F2 \
| "Em"E^DEG "Am"F=EFA | "Em"GFGB "Am"AGFE |
| "Em"E4- EGBA | "Em"G6 F2 \
|  "G"GDDG   "F"G=FFE | "Em"E4 z2 :|
